/* XPM */
static char *bunker_door[] = {
/* columns rows colors chars-per-pixel */
"64 64 23 1 ",
"  c black",
". c #393939",
"X c gray11",
"o c #5A5A5A",
"O c #7B7B7B",
"+ c gray61",
"@ c gray29",
"# c gray71",
"$ c #F75E0C",
"% c #F7B521",
"& c #004242",
"* c #005A5A",
"= c #007373",
"- c #008484",
"; c #009C9C",
": c #00B5B5",
"> c #D6D600",
", c #FFFF56",
"< c #00CECE",
"1 c #00E7E7",
"2 c #DE0000",
"3 c #A50000",
"4 c white",
/* pixels */
"                        .                                       ",
" XXX X   X X X X X X XXoXX XXXXXXXXXXXXXXXXXXX.oOOo.X.oOOo.XXXXX",
"X...X.XXX. . . . . . .O..X X.X.oOOo.X.XO+OX.X...............X..X",
".ooo.oX.Xo o oXoXo o.OooX. .oX@O++O@.oXOoO.oX@ooooooooooooo@X@@X",
"oooooo.oXO OXOXOXOX.OooX o .OX@O#+O@.OXo.o.OXoO+##+OoO+#++OoXo@X",
"oOOO$o.OX+X+X+.+.o.+ooX. o .+.@O##O@..oO+Oo..@.@@@@.@.@@@@.@.ooX",
"oOO%$o.+.+X+.O.O..OooX o oX.OX@O##O@..oO+Oo.XoooooooooooooooXooX",
"oO%%$o.+X+.O.O.o.+ooX. oXoX.+.@O##O@.+XX.XX+.oO++#+OoO+##+Oo.ooX",
"o%%%oo.+.O.O.O..#ooX.oXoXo..+.@O##O@.+..o..+.@.@@@@.@.@@@@.@.oo.",
"$%%Ooo.O.o.o.o.#ooX..o.o.o..O.oO+#Oo.O.XXX.O.ooooooooooooooo.ooX",
"$%OOoOOOOOOOo.#ooX.oOOOOOOOOOOOO++OOOOOOOOOOoOOOOOOOOOOOOOOO.oo.",
"$OOO$+++++O+O#ooX.+O+#####################+O+O+#+OooO+###+Ooooo.",
"oOO%$XXXXXXX#ooXXXXXXXXXOXXXXXXXXXXXXXXXXXXXOXXXO...........ooo.",
"oO%%$X.....+ooXX.......XO..................XO..XO.&&&&&&&&&&Ooo.",
"o%%%o.@@ooOooO+###+O+OoXO.O+O+########+O+O.XO.@XO.&**=-;;-=*+oo.",
"$%%Oo.@oo+oooooooooooOoX+.OooooooooooooooO.X+@.X+.&*=-;::;-=+oo.",
"$%OOo.ooOooX$%>,,,,,,,,,,,,,,,,,,,,,,,,>>o.XO@@XO.&=-;:<<:;-+oo.",
"$OOO$.oOooX$%>$$$%$$$%$$$%$$$%$$$%$$$%$$$>.X+@@X+.&-;:<11:;-+oo.",
"oOO%$.OooX $.>. .%. .%...%. .%. .%. .%..%>.X+@oX+.&;:<11<:;-+oo.",
"oO%%$.OoX$ > % $>% $.% $.% > %> >% $%% >.>.X+@@X+.&;:<1<:;-=+oo.",
"o%%%o.oo.$.% % .%% .%% .%% % %% %% .%% % >.X+@oX+.&-;:::;-=*+oo.",
"$%%Oo.OoX$.$.% $%% %.% >.% $ %% %% $$% % >.X+@OX+.&=-;;;-=*&+oo.",
"$%OOo.oo.$%.%%...%.%.%...%...%%.%%...%.%.%.X+@oX+.&*=---=*&&+oo.",
"$OOO$..o.2$>%%>>>%>>>%>>%%%>>%%>%%%>>%>%%$.X+@OX+oOO+O++++++OOo.",
"oOO%$....233333333333333333333333333333332.X+oOX+@oOOOOOOOOOoOOo",
"oO%%$X............................@ooooo@..X+@OX+.oooooooooo@+O.",
"o%%%oX.OO+O.Xo.XXXXXXXXXXXXXXXXXXXXXXXXX.X.X+oOX+.oooooooooo.++o",
"$%%OoX...Oo.XoOooooooooXo.ooooooooooooooo@.X+oOX+.oooooooooo.#+o",
"$%OOo.OO++Oo.o+oO++++OoXO@oX.X........XXXX.X+oOX+.@oooooooo@.##o",
"$OOO$X...OooXo+.XXXXXOoX+@oXo o o o o o oX.X+oOX+..@@@@@@@...##o",
"oOO%$X.OO+OoXo+.XoooXooX+@o.oXOX+X+ +XOXo..X+oOX+XXXXXXXXXXXX##o",
"oO%%$X...OooXoOX.O+O..oX+@oOo.o.o.oXo.o.oO.X+oOX+...........X##o",
"o%%%oXXXoo.XXo.X.X.XXXoXO@oO+O+++++++O+OOO.XOoOXO.@ooooooo@.X##o",
"$%%OoX..oo..oooooooooooX+@oooooooooooooooo.X+@OX+.ooooooooo.X##o",
"$%OOo.O+O++++++++++O+OoXO@o>,,,,,,,,,,,>,>.XOoOXO.@ooooooo@.X##o",
"$OOO$.OooooooooooooooOoXO@o>%%%%%%%%%%%%%>.XO@OXOoOO+O++O+OOo##o",
"oOO%$.Oo.XXXXXXXXXX.oOoXO@o>%33333333333%>.XO@OXO@ooooooooooo+#o",
"oO%%$.OoXXX.oooooo.XoOoXO@o>%3@ooo.ooo@3%>.XO@oXO.oooooooooo@++o",
"o%%%o.OoX.+O.oooooo.oOoXO@o>%2ooo.X.ooo2%>.XO@OXO.oooooooooo.O+.",
"$%%Oo.Oo.oO.ooooooo.oooXo@o>%2ooOX XOoo2%%.Xo@oXo.oooooooooo.OOo",
"$%OOo.ooo.oOOooXX.o.oOoXO@o%%2ooOo oOoo2%>.XO@@XO.@oooooooo@.oO.",
"$OOO$XOooo.oooo.+O..oOoXO@o>%2oooO Oooo2%>.XO@oXO..@oooooo@..oo.",
"oOO%$.XooOo.ooooO.oXoooXo@o%%2oooOXOooo2%%.Xo@@XoXXXXXXXXXXXXoo.",
"oO%%$..XooOo.ooooOOXoOoXO@o$%2@ooo.ooo@2%>.XO@@XO...........Xoo.",
"o%%%o.o.XooOo....XX.oooXo.o$%$>,,,,,,,>2%%.Xo.@Xo.@oOOOOOo@.Xoo.",
"$%%OoX.o.Xooooooooooo.oXo.o2$%%%%%%%%%%%$2.Xo@.Xo.oO+++++Oo.Xoo.",
"$%OOoXX.XXXoooXXXXXX.XoXo.o333333333333333.Xo..Xo.@oO+++Oo@.Xoo.",
"$OOO$X.ooo.XooOooooooooXo.oooooooooooooooo.Xo..XooO++++++O+Oooo.",
"oOO%$.oOOOo.Xoo+OOOOOOOoooOOOOOOOOOOOOOOOOOoooOoo.oooooooooo.oo.",
"oO%%$oO+++Oo.Xoo+O+O+++OoO+O+++++++++++++O+OoOOOoX..........ooo.",
"o%%%oo.....oo.Xoo+oo........................X...XXXXXXXXXXXoXoo.",
"$%%Oo.XXXXXX.o.Xoo+oo..X                               X.OooXoo.",
"$%OOoX      Xoo.Xoo+ooO.X X X X X X X X X X X X X X X X.OooOooo.",
"$OOO$X X X X Xoo.Xoo+ooO.X  . . . . . . . . . . . . .X.OooOoooo.",
"oOO%$X . . .  Xoo.Xoo+ooO.X o o o o o o o o o o o o o.OooOooooo.",
"oO%%$X o o . X Xoo.Xoo+ooO.XO O O O O O O O O O O OXOOooOooOooo.",
"o%%%oX o o o . XXoo.Xoo+ooO.OOO O O O O O O O O O O.OooOoo+o.oo.",
"$%%Oo. . . . o . .oo.XooOooO+O++++++++++++++++++O+OOooOoo+oo.ooX",
"$%OOooooooooooooooooo.Xoo+oooooooooooooooooooooooooooOooOoooXoo.",
"$oooooOOOOOOOOOOOOOOOo.XooOOOOOOOOOOOOOOOOOOOOOOOOOOOooOooo.X.oX",
".ooo.++++++++++++++O+Oo.XooO+O+++++++++++++++++++++Ooooo..XXX..X",
"X...X....................X..O..................................X",
" XXX XXXXXXXXXXXXXXXXXXXXXX...XXXXXXXXXXXXXXXXXXXXXXXXXXXXXXXXXX",
"                                                                "
};
