/* XPM */
static char *greybrick4[] = {
/* columns rows colors chars-per-pixel */
"64 64 14 1 ",
"  c #2C2C2C",
". c gray22",
"X c #717171",
"o c gray49",
"O c #8D8D8D",
"+ c gray60",
"@ c #AAAAAA",
"# c #5D5D5D",
"$ c #656565",
"% c #484848",
"& c #202020",
"* c gray11",
"= c black",
"- c gray19",
/* pixels */
" . XoO+@@@@@@@@@@@@@@@@@@@@@+OoX . XoO+@@@@@@@@@@@@@@@@@@@@@+OoX",
" . #++++++++++++OOOO+O+O+O+O+O+$ . #++++++++++++OOOO+O+O+O+O+O+$",
" . #++O+++OO+OOOOOOOO+O+O+OOO+O$ . #++O+++OO+OOOOOOOO+O+O+OOO+O$",
" . #OO+OO++OOOoOOOOO+O+O+OOOOoO$ . #OO+OO++OOOoOOOOO+O+O+OOOOoO$",
" . #O+OOOO+OOoOo+OO+OOO+O+O+oOo$ . #O+OOOO+OOoOo+OO+OOO+O+O+oOo$",
" . #O+OOOO+OOoOo+OO+OOO+O+O+oOo$ . #O+OOOO+OOoOo+OO+OOO+O+O+oOo$",
" . #OO+OOOOOoOo+O+OoOOOOoO+oOoo$ . #OO+OOOOOoOo+O+OoOOOOoO+oOoo$",
" . #OOO+OOOoOoOo+o+ooOoOooooooO$ . #OOO+OOOoOoOo+o+ooOoOooooooO$",
" . #OOoOoooooOoOooooooOo+ooOOoo$ . #OOoOoooooOoOooooooOo+ooOOoo$",
" . #oXOXooooXoOooXoOoOXoooXooXo$ . #oXOXooooXoOooXoOoOXoooXooXo$",
" . #o$XoX$oXoXoXXoXXoXoooXo$XoX$ . #o$XoX$oXoXoXXoXXoXoooXo$XoX$",
" . #$$$X$X$o$oX$oX$X$X$X$o$X$oX$ . #$$$X$X$o$oX$oX$X$X$X$o$X$oX$",
" . #X$X$XXX$X$$oXXX$X$X$X$X$X$$$ . #X$X$XXX$X$$oXXX$X$X$X$X$X$$$",
" . %%%%%%%%%%%%%%%%%%%%%%%%%%%%% . %%%%%%%%%%%%%%%%%%%%%%%%%%%%%",
"& &*****************************& &*****************************",
"                                                                ",
"................................................................",
"@@@@@@@@@@@+OoX . XoO+@@@@@@@@@@@@@@@@@@@@@+OoX . XoO+@@@@@@@@@@",
"OOO+O+O+O+O+O+$ . #++++++++++++OOOO+O+O+O+O+O+$ . #++++++++++OOO",
"OOOO+O+O+OOO+O$ . #++O+++OO+OOOOOOOO+O+O+OOO+O$ . #++O+++OOOOOOO",
"OOO+O+O+OOOOoO$ . #OO+OO++OOOoOOOOO+O+O+OOOOoO$ . #OO+OO++OoOOOO",
"+OoOOOOoO+oOoo$ . #OO+OOOOOoOo+O+OoOOOOoO+oOoo$ . #OO+OOOOOo+O++",
"o+ooOoOooooooO$ . #OOO+OOOoOoOo+o+ooOoOooooooO$ . #OOO+OOOoOo+oo",
"OO+OOO+O+O+oOo$ . #O+OOOO+OOoOo+OO+OOO+O+O+oOo$ . #O+OOOO+OOo+OO",
"+OoOOOOoO+oOoo$ . #OO+OOOOOoOo+O+OoOOOOoO+oOoo$ . #OO+OOOOOo+O++",
"o+ooOoOooooooO$ . #OOO+OOOoOoOo+o+ooOoOooooooO$ . #OOO+OOOoOo+oo",
"oooooOo+ooOOoo$ . #OOoOoooooOoOooooooOo+ooOOoo$ . #OOoOoooooOooo",
"XoOoOXoooXooXo$ . #oXOXooooXoOooXoOoOXoooXooXo$ . #oXOXooooOooXX",
"oXXoXoooXo$XoX$ . #o$XoX$oXoXoXXoXXoXoooXo$XoX$ . #o$XoX$oXoXXoo",
"X$X$X$X$o$X$oX$ . #$$$X$X$o$oX$oX$X$X$X$o$X$oX$ . #$$$X$X$oX$oXX",
"XX$X$X$X$X$X$$$ . #X$X$XXX$X$$oXXX$X$X$X$X$X$$$ . #X$X$XXX$$oXXX",
"%%%%%%%%%%%%%%% . %%%%%%%%%%%%%%%%%%%%%%%%%%%%% . %%%%%%%%%%%%%%",
"**************** ******************************* ***************",
"                                                                ",
"................................................................",
" . XoO+@@@@@@@@@@@@@@@@@@@@@+OoX . XoO+@@@@@@@@@@@@@@@@@@@@@+OoX",
" . #++++++++++++OOOO+O+O+O+O+O+$ . #++++++++++++OOOO+O+O+O+O+O+$",
" . #++O+++OO+OOOOOOOO+O+O+OOO+O$ . #++O+++OO+OOOOOOOO+O+O+OOO+O$",
" . #OO+OO++OOOoOOOOO+O+O+OOOOoO$ . #OO+OO++OOOoOOOOO+O+O+OOOOoO$",
" . #O+OOOO+OOoOo+OO+OOO+O+O+oOo$ . #O+OOOO+OOoOo+OO+OOO+O+O+oOo$",
" . #OO+OOOOOoOo+O+OoOOOOoO+oOoo$ . #OO+OOOOOoOo+O+OoOOOOoO+oOoo$",
" . #OOO+OOOoOoOo+o+ooOoOooooooO$ . #OOO+OOOoOoOo+o+ooOoOooooooO$",
" . #OOoOoooooOoOooooooOo+ooOOoo$ . #OOoOoooooOoOooooooOo+ooOOoo$",
" . #oXOXooooXoOooXoOoOXoooXooXo$ . #oXOXooooXoOooXoOoOXoooXooXo$",
" . #o$XoX$oXoXoXXoXXoXoooXo$XoX$ . #o$XoX$oXoXoXXoXXoXoooXo$XoX$",
" . #$$$X$X$o$oX$oX$X$X$X$o$X$oX$ . #$$$X$X$o$oX$oX$X$X$X$o$X$oX$",
" . #X$X$XXX$X$$oXXX$X$X$X$X$X$$$ . #X$X$XXX$X$$oXXX$X$X$X$X$X$$$",
" . %%%%%%%%%%%%%%%%%%%%%%%%%%%%% . %%%%%%%%%%%%%%%%%%%%%%%%%%%%%",
"& &*****************************& &*****************************",
"                                                                ",
"................................................................",
"@@@@@@@@@@@+OoX .===============================. XoO+@@@@@@@@@@",
"OOO+O+O+O+O+O+$ .===============================. #++++++++++OOO",
"OOOO+O+O+OOO+O$ .===============================. #++O+++OOOOOOO",
"OOO+O+O+OOOOoO$ .===============================. #OO+OO++OoOOOO",
"OO+OOO+O+O+oOo$ .===============================. #O+OOOO+OOo+OO",
"+OoOOOOoO+oOoo$ .===============================. #OO+OOOOOo+O++",
"o+ooOoOooooooO$ .===============================. #OOO+OOOoOo+oo",
"oooooOo+ooOOoo$ .===============================. #OOoOoooooOooo",
"XoOoOXoooXooXo$ .*******************************. #oXOXooooOooXX",
"oXXoXoooXo$XoX$ .&&&&&&&&&&&&&&&&&&&&&&&&&&&&&&&. #o$XoX$oXoXXoo",
"X$X$X$X$o$X$oX$ .-------------------------------. #$$$X$X$oX$oXX",
"XX$X$X$X$X$X$$$ ................................. #X$X$XXX$$oXXX",
"%%%%%%%%%%%%%%% .%%%%%%%%%%%%%%%%%%%%%%%%%%%%%%%. %%%%%%%%%%%%%%"
};
