/* XPM */
static char *metal3[] = {
/* columns rows colors chars-per-pixel */
"64 64 29 1 ",
"  c #9DDEDE",
". c #75CACA",
"X c #20B2B2",
"o c #006D6D",
"O c #00A5A5",
"+ c #48C2C2",
"@ c #005959",
"# c #009999",
"$ c white",
"% c #008D8D",
"& c #007D7D",
"* c #009D9D",
"= c #DAF6F6",
"- c #008585",
"; c #007979",
": c #710000",
"> c #716D00",
", c #FFF620",
"< c #006565",
"1 c #D2D2D2",
"2 c #007171",
"3 c #004040",
"4 c gray49",
"5 c #BAEAEA",
"6 c #8D8D8D",
"7 c #B6B6B6",
"8 c gray60",
"9 c gray11",
"0 c #006161",
/* pixels */
"                           ..............XXXXXXXXXXXXXXXXXXXXXXo",
" OOOOOXXXXX+X+X+++X+X+X+XXXXXXXXXXXXOOOOOOOOOOOOOOOOOOOOOOOOOOO@",
" OOO..OOXXXX+X+X+X+++++X+X+X+X+XXXXXXXXXXXXXXXXOOOOOOOOOOO..OOO@",
" #O.$ %&OOXXOXX+X+X+X+++++++X+X+X+X+X+XXXXXXXXXXXXXXXXXXX.$ %&O@",
" ##. O%&OOOOXOXXXXXX+X+X+++++++++++X+X+X+X+X+XXXXXXXXXXXX. O%&X@",
" %##O%&OOOOOOOOXOXOXXXX+X+X+++++++++++++++X+X+X+X+X+XXXXXXO%&OO@",
" %%%##*OOOOOoOOOoOXOoXXXoX+XoX++o+++o+++o+++o++XoX+XoX+X+XXXXXX@",
" %%%%##**OOOOOOOOOOXOXOXXXXXX+X+X+++++++++++++++++++++X+X+X+X+X@",
" %%%%%%##**oooooooooooooooooooooooooooooooooooooooooo=+++++X+X+@",
" -%%%%%%###o@@@@@@@@oooooooooooooooooooooooooooooooo.=+++++++++@",
" --%XXO%%%#o@**#OOOOOOOOOOXOXOXXXXXXXX+X+X+X++++++++ =++++..OO+@",
".&-X +%o%%%o@##**O#O#OOOOOOOOXOXOXOXOXXXX+X+X+X+++++ =+++.$ %&+@",
".&&#+O%o%%%o@%##***#OOOOOOOOOOOOXOXXXXXXXXXXXX+X+X++ =+++. O%&+@",
".&&&#%oo-%%o@#%###***O#O#OOOOOOOOXOXOXOXOXXXXXXXX+X+ =+++XO%&O+@",
".&&&ooo&%-%o@%%#####**O#OOOOOOOOOOOOXOXOXXXXXXXXXXXX =+X+++++++@",
".;&&&&--&--o@%%:::::::::::::::::::::::::::::::::::OX =X+X+X++++@",
".;;&&&&----o@%:>,,,,,,,,,,,,,,,,,,,,,,,,,,,,,,,,,>:# =XXXX+X+X+@",
".;;;&&&&---o@%:,>:::::::::::::::::::::::::::::::>,:< =XXXXXXX+X@",
"+;;-##%&&--o@-:,:1:1:11:11::11:::1::111:11:1:1:1:,:@ =XXXO..OOX@",
"+2;#XO%o&&-o@-:,:1:1:1::1:1:1:1:1:1::1::1::111:1:,:@ =OXX.$ %&X@",
"+2;%OO;@&&&o@-:,:1:1:11:11::11::1:1::1::11:111:1:,:3 =XXX. O%&X@",
"+22o;oo@;&&@@-:,:1:1:1::1:1:1:1:1:1::1::1::1:1:::,:3 =OXOXO%&OX@",
"+22o@@@o&;&@@&:,::1::11:1:1:11:::1:::1::11:1:1:1:,:3 =XOXXXXXXX@",
"+o222;;;;&;@@&:,:::::::::::::::::::::::::::::::::,:3 =OOOXOXOXO@",
"+o222;;;;;&@@&:,:::::::::::::::::::::::::::::::::,:3 =OOOOOOXOX@",
"+oo2222;;;;@@&:,:::::::::::::::::::::::::::::::::,:3 =OOOOOOOXO@",
"+oo&#%-2;;;@@&:,:::::444:4:44444:44:444444:44::::,:3.=OOOO..OOO@",
"+oo#X#%o2;;@@&:,:::::::::::::::::::::::::::::::::,:3.=OOO.$ %&O@",
"+oo%#%o@22;@@;:,:::444444:444:44:44444:444444::::,:3.5OOO. O%&O@",
"+2oooo@@2;;@@&:,:::::::::::::::::::::::::::::::::,:3.5#O#XO%&OO@",
"+2oo@@@o22;@@;:,:::444:4444444:444:4:4444:444::::,:3.5O#OOOOOOO@",
"+;2oooo2222@@;:,:::::::::::::::::::::::::::::::::,:3.5**#O#O#OO@",
"X;2ooooo222@@;:,:::::::::::::::::::::::::::::::::,:3.5*#**O#OOO@",
"X;;2oooo222@@;:,:::::444:44444444:4:44:444:44::::,:3.5#*****#O#@",
"X;;&%&ooo22@@2:,:::::::::::::::::::::::::::::::::,:3.5###O..OOO@",
"X;;%O#&ooo2@@2:,:::44:44444:4444:44444444:444::::,:3X ###.$ %&*@",
"X&;%#%o@oo2@@2:,:::::::::::::::::::::::::::::::::,:3X ###. O%&#@",
"X&;ooo@@ooo@@2:,:::4444:4444444444:4:4444:444::::,:3X ####O%&O*@",
"X&&o@@@oooo@@2:,:::::::::::::::::::::::::::::::::,:3X #########@",
"X&&;;22oooo@@2:,:::444:44:44444:4:44:444444:4::::,:3X #########@",
"X&&;;;2oooo@@2:,:::::::::::::::::::::::::::::::::,:3X.#########@",
"X&&&;;22ooo@@o:,:::4444:4:4444:444:44444:4444::::,:3X.%###%####@",
"X&&-#%;oooo@@o:,:::::::::::::::::::::::::::::::::,:3X.%%#O++O%#@",
"X-&#X#%o2oo@@o:,:::::::::::::::::::::::::::::::::,:3X.%#%+ .%&#@",
"X-&%#%o@2oo@@o:,:::::::::::::::::::1616718171::::,:3O.%%%X..%&#@",
"X--ooo@@22o@@o:,>:::::::::::::::::::::::::::::::>,:3O.%%%%O%&%%@",
"X--o@@@o22o@@o:>,,,,,,,,,,,,,,,,,,,,,,,,,,,,,,,,,>:3O.%%%%%%#%%@",
"X--&&&;;;22@@o<:::::::::::::::::::::::::::::::::::9@O+%%%%%%%#%@",
"X---&&;;;22@@oo03333333333333333333333333333333333@2X+%%%%%%%%%@",
"X---&&&;;;2@@ooo<00<<<<<<o<oooooo2o222222;2;2;2;;;&&X+%%%%%%%%%@",
"X---#%%&;;2@@ooooooo222222;2;;;;;;&;&&&&&&&&-&------X+%-%%XXO%%@",
"X--#X#%o;;2@@oooooooo222222;2;;;;;;&;&&&&&&-&-&-&---O+-%-X +%&%@",
"X--%#%o@;;;@@oooooooo2222222;2;;;;;;&;&&&&&&&&-&----OX--%X+O-o%@",
"X%-ooo@@;;;@@2oooooooo2222222;;;;;;;;&;&&&&&&-&-&-&-OX---%O%&o%@",
"X%-o@@@o&;;@o%%%--------%%%%%%%%%%%%%%%%%%%%%%####OOOX----%oo%%@",
"X%----&&&;;@-##%%%%%%%%%%%%%#######OOOOOOOOOOOOOOXXXXX-----%%%%@",
"X%----&&&&;;222ooooooooo222222;;;;;;;;;&&;&&&&&&&&-&---------%%@",
"X%----&&&&;;32223ooo3ooo3222322;3;;;3;;;3&;&3&&&3-&-3-&-------%@",
"X%%&##;&&&;;;222ooooooooo2222222;;;;;;;;;;&;&&&&&&&&-&----OO%--@",
"X%%#+X&o&&&;;;222ooooooooo2222222;2;;;;;;;;&;&&&&&&-&-&-&O.X%o-@",
"X%%#X-o@&&&;;;222oooooooooo2222222;2;;;;;;;;&;&&&&&&&&-&-OXO-o-@",
"X%%&oo@@&&&&;;;222ooooooooo22222222;2;;;;;;;;&;&&&&&&-&-&---oo-@",
"X%%o@@@o&&&&;;;222oooooooooo22222222;2;;;;;;;;&;&&&&&&&&-&ooo--@",
"&333333333333333333333333333333333333333333333333333333333333333"
};
