/* XPM */
static char *north[] = {
/* columns rows colors chars-per-pixel */
"16 16 5 1 ",
"  c #586074",
". c #74827C",
"X c #88918A",
"o c #A0A39C",
"O c #B2B6AC",
/* pixels */
"OOOOOOOOOOOOXOO.",
"Oooooooooooo.Oo.",
"Ooooooooooo.Ooo.",
"Oooooo.Ooo.Oooo.",
"Ooooo.Oooo.Oooo.",
"Ooooooooooooooo.",
"Oo..Ooooooooooo.",
"X.OOooooooooooo.",
"OOooooooooooooo.",
"Ooooooooooooooo.",
"Oooooooooooooo. ",
"Oooooo.oooooo.O.",
"Ooooo.Ooooooo.O.",
"Oooo.Ooooooo.Oo.",
"Oooo.Oooooo.Ooo.",
"o... ...... ... "
};
