/* XPM */
static char *west[] = {
/* columns rows colors chars-per-pixel */
"16 16 5 1 ",
"  c #22263D",
". c #262B44",
"X c #333C5A",
"o c #3A4466",
"O c #455272",
/* pixels */
"OOo.oooooOo.XXoo",
"XXO.oXXXXXo.oXXo",
"XXo oXXXXXo XXoX",
" .    .. .   ...",
".ooooOOo.XooXoOo",
".oXXXXXO.oXXXXoO",
".XoXXXoo oXXXXXo",
"..   ... ..  ...",
"OOo oooOOOo XoOO",
"XoO.XXXXXoO.oXoX",
"XXo.oXXXXXo.XXXo",
"..   ... .  ....",
".XoXoOOo XXooOOo",
".XXoXoXO.oXXXoXO",
".oXXXXoo.XXoXooo",
" ......    ... ."
};
